!!!COM: Bach, Johann Sebastian
!!!OTL: 165. O Lamm Gottes, unschuldig
!!!ONM: No. 165
!!!OCL: Erk
!!!SCA: BWV 401
!!!YOE: Riemenschneider, Albert
!!!OPR: 371 Harmonized Chorales and 69 Chorale Melodies with Figured Bass
!!!OPT: Bach Chorale Harmonizations
**harm	**root	**kern	**kern	**kern	**kern
!	!	!bass	!tenor	!alto	!sprno
*Iorgan	*Iorgan	*Iorgan	*Iorgan	*Iorgan	*Iorgan
*>[A,A,B]	*>[A,A,B]	*>[A,A,B]	*>[A,A,B]	*>[A,A,B]	*>[A,A,B]
*>norep[A,B]	*>norep[A,B]	*>norep[A,B]	*>norep[A,B]	*>norep[A,B]	*>norep[A,B]
*>A	*>A	*>A	*>A	*>A	*>A
*k[f#c#]	*k[f#c#]	*k[f#c#]	*k[f#c#]	*k[f#c#]	*k[f#c#]
*D:	*D:	*D:	*D:	*D:	*D:
*met(c)	*met(c)	*met(c)	*met(c)	*met(c)	*met(c)
*M4/4	*M4/4	*M4/4	*M4/4	*M4/4	*M4/4
*MM60	*MM60	*MM60	*MM60	*MM60	*MM60
I	4FF	8DD	8F#	4A	4d
.	.	8EE	8G	.	.
=1	=1	=1	=1	=1	=1
I7b	4FF	4FF#	[4A	16A	4d
.	.	.	.	16B	.
.	.	.	.	8c	.
IV	4BB-	[4GG	8A]	8c	4d
.	.	.	16G	8B	.
.	.	.	16F#	.	.
V7c	4CC	4GG]	4E	8c#	4a
.	.	.	.	8A	.
Ib	4FF	8FF#	[4A	8d	4a
.	.	8EE	.	8c#	.
=2	=2	=2	=2	=2	=2
vi7b	4DD	4DD	4A]	4f#	2b
V/V	4GG	4EE	4G#	8e	.
.	.	.	.	8d	.
V;	4CC;	4AA;	4E;	4c#;	4a;
iii	4AA	4FF#	4F#	[4c#	4a
=3	=3	=3	=3	=3	=3
vi	4DD	4BB	4F#	8c#]	4d
.	.	.	.	[8B	.
Vb	4CC	4C#	4E	8B]	4e
.	.	.	.	8A	.
I	4FF	8D	4.D	8A	4f#
.	.	8C#	.	16B	.
.	.	.	.	16c#	.
IVb	4BB-	8BB	.	[4d	4g
.	.	8GG	8B	.	.
=4	=4	=4	=4	=4	=4
Ic	4FF	4AA	4A	8d]	4f#
.	.	.	.	16c#	.
.	.	.	.	16B	.
V	4CC	4AAA	8.A	4c#	8e
.	.	.	.	.	8d
.	.	.	16G	.	.
I;	4FF;	4DD;	4F#;	4A;	4d;
=:|!	=:|!	=:|!	=:|!	=:|!	=:|!
*>B	*>B	*>B	*>B	*>B	*>B
I	4FF	[4D	4A	4d	4f#
=5	=5	=5	=5	=5	=5
I	4FF	8D]	4A	4d	4f#
.	.	8C#	.	.	.
vi	4DD	8BB	4B	4d	4f#
.	.	8AA	.	.	.
V7b/V	4GG	4GG#	4B	4d	4e
Vb/vi	4AA	4AA#	4F#	4c#	4f#
=6	=6	=6	=6	=6	=6
!!linebreak: 2
vi	8DD	8BB	8F#	8B	8d
Vb	8CC	8C#	8E	[8A	8c#
vi7b	8DD	8D	8F#	8A]	4B
V/V	8GG	8E	16E	8G#	.
.	.	.	16D	.	.
V;	4CC;	4AA;	4C#;	4E;	4A;
V7b/IV	4FF	4FF#	4D	4c	4a
=7	=7	=7	=7	=7	=7
IV	8BB-	4GG	8D	8B	4b
(vii7c)	8EE	.	8E	8c#	.
I	4FF	[4D	8F#	8d	4a
.	.	.	8G	16e	.
.	.	.	.	16f#	.
Vb	4CC	8D]	[4A	4e	4a
.	.	8C#	.	.	.
I	8FF	4D	8A]	4d	8f#
IVc	8BB-	.	8B	.	8g
=8	=8	=8	=8	=8	=8
V7/IV	8FF	8D	4c	4.f#	4a
viioD7/ii	8FF#	8D#	.	.	.
v/VI	4AA	8E	4B	.	4g
.	.	8EE	.	[8e	.
VI;	4DD;	4BB;	4B;	8e]	4f#;
.	.	.	.	8d#;	.
iib	8GG	8GG	8B	4e	4b
V7b/V	8GG	8GG#	8d	.	.
=9	=9	=9	=9	=9	=9
V	4CC	4AA	[4c#	4e	8a
.	.	.	.	.	8g
vi	4DD	4BB	8c#]	4d	4f#
.	.	.	[8B	.	.
Vb	4CC	4C#	8B]	[4e	4e
.	.	.	8A	.	.
I	4FF	4D	4A	8e]	4f#
.	.	.	.	16d	.
.	.	.	.	16c#	.
=10	=10	=10	=10	=10	=10
Ib	4FF	8FF#	8A	4d	4a
.	.	16GG	8F#	.	.
.	.	16AA	.	.	.
vi	4DD	8BB	8D	[4d	4f#
.	.	8AA	8F#	.	.
ii7b	4GG	4GG	4B	4d]	2e
V	4CC	4AA	8A	4c#	.
.	.	.	8G	.	.
=11	=11	=11	=11	=11	=11
I;	2.FF;	2.DD;	2.F#;	2.A;	2.d;
==	==	==	==	==	==
*-	*-	*-	*-	*-	*-
!!!CDT: 1685/3//-1750/7/28
!!!OCY: Deutschland
!!!AGN: chorale
!!!AST: Baroque
!!!AIN: vox
!!!YOY: 1941
!!!PPP: New York; London
!!!PPR: G. Schirmer
!!!ENC: David Huron
!!!EED: David Huron
!!!YEN: United States of America
!!!YER: 1992
!!!YEC: Copyright 1992 David Huron
!!!YEM: Rights to all derivative electronic formats reserved.
!!!YER: March 20, 1996
!!!AMT: simple quadruple
!!!EEV: 1.1
!!chor2scor: -l 2 -s 0.6 -o %b.pmx
